X: 24402
T: Lovely Nancy
R: waltz
M: 3/4
K: Gmajor
G2 G2 G>A/B/4|{B}A2 A2 A>B/c/4|{c}B2 g<e d<B|
{B}A4 "tr"B>A|G2 G2 d<e|{B}A2 A2 g<e|d>e d<B A>B|G4:|
d2 d2 g<e|{e}d4 B>c|d2 d<B g>B|{B}A4 "tr"B>A|
{A}G2 G2 d<B|{B}A2 A2 A>B/c/4|d>e d<B A>B|G4:|
(3GBd g2 (3GBd|(3Ace a2 (3Ace|(3dgb (3agf (3egB|{B}A4 "tr"B>A|
(3GBd g2 (3dgb|(3agf g2 (3ece|(3dge (3dBG (3cAF|G4:|
d2 (3def (3gab|(3dec B2 c2|(3dba (3gfe (3dgB|{B}A4 B>c|
d2 (3gab (3c'ba|(3bag e2 g2|(3dBG B2 c<A|G4:|
G2 (3GAB (3dBG|A2 (3ABc (3Bdg|"tr"e<d "tr"d<c "tr"c<B|
{b}A4 B>A|G2 (3GAB (3dBG|A2 (3ABc (3Bdg|(3ecA (3dBG (3cAF|G4:|
d2 (3def (3gfe|d2 (3dBc (3dBc|(3def (3gec (3dBG|{B}A4 "tr"B>A|
G2 (3GAB (3dBG|A2 (3ABc (3Bge|d>e d<B "tr"A>B|G4:|
GA dg Gb|Ac ea Ac'|bg ae gB|{B}A4 B>A|
GA dg Gb|Ac ea Ac'|bg B2 c<A|G4:|
dg da db|dc' dd' dc'|ba gd cB|{B}A4 BA|
Gd Ge Af|Bg ca dg|ec B2 c<A|G4:|
AA- A/c/f/a/ c'/a/f/c/|B/g/e d/B/G c/A/F|G4:|
dd- d/e/f/g/ a/f/d'|dd d/e/f/g/ a/f/d'|bg ae gB|{B}A4 B>c|
dg d/g/b dc'|dd' .c'/.b/.a/.g/ .f/.e/.d/.c/|B/d/g B2 c<A|G4:|
d2 d2 g<e|{e}d4 B>c|d2 d<B g>B|{B}A4 "tr"B>A|
{A}G2 G2 d<B|{B}A2 A2 A>B/c/4|d>e d<B A>B|G4:|

